X: 14544
T: Gan Ainm
R: jig
M: 6/8
K: Gmajor
|:DGA B2d|cBA BAF|DFG AFG|AAA AGF|
DGA B2d|cBA BAF|DFG AcB|AGF G2F:|
|:EGA BBB|cBA BAF|DFG AFG|AAA AGF|
EGA BBB|cBA BAF|DFG AcB|1 AGF E2D:|2 AGF G2F||

